Sites/Hud/app/img/dest/order/image(3).svg

<svg width="124" height="134" viewBox="0 0 124 134" fill="none" xmlns="http://www.w3.org/2000/svg">
<path d="M50.8392 26.3605L58.9441 34.0527L73.1608 16.1486M8.32168 6.20187L22.6713 13.6287M8.32168 25.5648H22.6713M8.32168 44.5299L22.6713 36.7051M101.462 13.6287L115.413 6.20187M101.462 25.5648H115.413M101.462 36.7051L114.483 43.7341M62 66.9431L71.4336 81.0012H113.287M62 66.9431L52.4336 81.0012H9.91608M62 66.9431V90.0195M9.91608 81.0012H5L14.1678 62.8318H110.231L119 81.0012H113.287M9.91608 81.0012V131H61.6014M113.287 81.0012V131H61.6014M62 113.229L61.6014 131M40.0769 116.279H22.6713M61.3353 3.00054C32.8699 2.82212 32.1047 46.9171 62 46.9171C91.8953 46.9171 89.8006 3.17896 61.3353 3.00054Z" stroke="#0C565F" stroke-width="6"/>
</svg>

<svg width="124" height="134" fill="none" xmlns="http://www.w3.org/2000/svg"><path d="M50.84 26.36l8.104 7.693 14.217-17.904M8.32 6.202l14.35 7.427M8.321 25.565h14.35M8.321 44.53l14.35-7.825m78.791-23.076l13.951-7.427m-13.951 19.363h13.951m-13.951 11.14l13.021 7.03M62 66.942L71.434 81h41.853M62 66.943l-9.566 14.058H9.916M62 66.943V90.02M9.916 81.001H5l9.168-18.17h96.063L119 81.002h-5.713m-103.37 0V131H61.6m51.686-49.999V131H61.601M62 113.229L61.601 131m-21.524-14.721H22.67M61.335 3.001C32.87 2.822 32.105 46.917 62 46.917S89.8 3.18 61.335 3.001z" stroke="#0C565F" stroke-width="6"/></svg>
